src/assets/images/IconDownloadDirosa.svg

<svg width="21" height="21" viewBox="0 0 21 21" fill="none" xmlns="http://www.w3.org/2000/svg">
<path d="M0.526123 5.13082C0.526123 4.18733 1.29097 3.42249 2.23445 3.42249H7.78653C8.73002 3.42249 9.49487 4.18733 9.49487 5.13082V6.83915C9.49487 7.78263 8.73002 8.54748 7.78653 8.54748H2.23445C1.29097 8.54748 0.526123 7.78263 0.526123 6.83915V5.13082Z" fill="#13A98B"/>
<path d="M1.80737 7.26623H2.24821V6.20576H2.58759C3.1124 6.20576 3.54974 6.01032 3.54974 5.4457C3.54974 4.91004 3.18237 4.70374 2.61558 4.70374H1.80737V7.26623ZM2.24821 5.82211V5.08739H2.57009C2.843 5.08739 3.1054 5.14168 3.1054 5.4457C3.1054 5.74973 2.843 5.82211 2.5561 5.82211H2.24821Z" fill="white"/>
<path d="M3.94282 7.26623H4.821C5.46827 7.26623 6.189 6.88258 6.189 5.98498C6.189 5.02224 5.46827 4.70374 4.821 4.70374H3.94282V7.26623ZM4.38366 6.8681V5.09462H4.75103C5.20586 5.09462 5.71668 5.25026 5.71668 5.98498C5.71668 6.67628 5.20586 6.8681 4.75103 6.8681H4.38366Z" fill="white"/>
<path d="M6.6147 7.26623H7.05554V6.18767H8.14714V5.80402H7.05554V5.10186H8.21362V4.70374H6.6147V7.26623Z" fill="white"/>
<path fill-rule="evenodd" clip-rule="evenodd" d="M4.79696 9.82861C5.03283 9.82861 5.22404 10.0198 5.22404 10.2557V18.7974C5.22404 19.1372 5.35903 19.4631 5.59931 19.7033C5.83959 19.9436 6.16548 20.0786 6.50529 20.0786H18.4636C18.8034 20.0786 19.1293 19.9436 19.3696 19.7033C19.6099 19.4631 19.7449 19.1372 19.7449 18.7974V15.3807C19.7449 15.1448 19.9361 14.9536 20.1719 14.9536C20.4078 14.9536 20.599 15.1448 20.599 15.3807V18.7974C20.599 19.3637 20.374 19.9069 19.9736 20.3073C19.5731 20.7078 19.03 20.9328 18.4636 20.9328H6.50529C5.93894 20.9328 5.39579 20.7078 4.99532 20.3073C4.59485 19.9069 4.36987 19.3637 4.36987 18.7974V10.2557C4.36987 10.0198 4.56108 9.82861 4.79696 9.82861Z" fill="#13A98B"/>
<path fill-rule="evenodd" clip-rule="evenodd" d="M20.1719 13.2454C20.4078 13.2454 20.599 13.0541 20.599 12.8183V1.99884C20.599 1.51484 20.3109 1.10646 19.9085 0.838173C19.5063 0.57004 18.9858 0.432873 18.4636 0.432873H6.50529C5.98311 0.432873 5.46261 0.570039 5.06041 0.838173C4.65798 1.10646 4.36987 1.51484 4.36987 1.99884V3.42245C4.36987 3.65832 4.56108 3.84954 4.79696 3.84954C5.03283 3.84954 5.22404 3.65832 5.22404 3.42245V1.99884C5.22404 1.87874 5.2959 1.70776 5.53422 1.54888C5.77277 1.38985 6.12131 1.28704 6.50529 1.28704H18.4636C18.8476 1.28704 19.1961 1.38985 19.4347 1.54888C19.673 1.70776 19.7449 1.87874 19.7449 1.99884V12.8183C19.7449 13.0541 19.9361 13.2454 20.1719 13.2454Z" fill="#13A98B"/>
<path fill-rule="evenodd" clip-rule="evenodd" d="M7.91159 10.8078C8.07838 10.641 8.34879 10.641 8.51558 10.8078L12.4844 14.7767L16.4532 10.8078C16.62 10.641 16.8904 10.641 17.0572 10.8078C17.224 10.9746 17.224 11.245 17.0572 11.4118L12.7864 15.6826C12.6196 15.8494 12.3492 15.8494 12.1824 15.6826L7.91159 11.4118C7.7448 11.245 7.7448 10.9746 7.91159 10.8078Z" fill="#13A98B"/>
<path fill-rule="evenodd" clip-rule="evenodd" d="M12.4845 4.70361C12.7203 4.70361 12.9115 4.89482 12.9115 5.1307V15.3807C12.9115 15.6166 12.7203 15.8078 12.4845 15.8078C12.2486 15.8078 12.0574 15.6166 12.0574 15.3807V5.1307C12.0574 4.89482 12.2486 4.70361 12.4845 4.70361Z" fill="#13A98B"/>
</svg>

<svg width="21" height="21" fill="none" xmlns="http://www.w3.org/2000/svg"><path d="M.526 5.13c0-.943.765-1.708 1.708-1.708h5.553c.943 0 1.708.765 1.708 1.709v1.708c0 .944-.765 1.708-1.708 1.708H2.234A1.708 1.708 0 0 1 .526 6.84V5.131z" fill="#13A98B"/><path d="M1.807 7.266h.441v-1.06h.34c.524 0 .962-.196.962-.76 0-.536-.368-.742-.934-.742h-.809v2.562zm.441-1.444v-.735h.322c.273 0 .535.055.535.359s-.262.376-.549.376h-.308zM3.943 7.266h.878c.647 0 1.368-.383 1.368-1.281 0-.963-.72-1.281-1.368-1.281h-.878v2.562zm.44-.398V5.095h.368c.455 0 .966.155.966.89 0 .691-.511.883-.966.883h-.367zM6.615 7.266h.44V6.188h1.092v-.384H7.056v-.702h1.158v-.398h-1.6v2.562z" fill="#fff"/><path fill-rule="evenodd" clip-rule="evenodd" d="M4.797 9.829c.236 0 .427.19.427.427v8.541a1.28 1.28 0 0 0 1.281 1.282h11.959a1.281 1.281 0 0 0 1.28-1.282v-3.416a.427.427 0 1 1 .855 0v3.416a2.135 2.135 0 0 1-2.135 2.136H6.505a2.135 2.135 0 0 1-2.135-2.136v-8.541c0-.236.191-.427.427-.427zM20.172 13.245a.427.427 0 0 0 .427-.427V1.998c0-.483-.288-.892-.69-1.16-.403-.268-.923-.405-1.445-.405H6.505c-.522 0-1.042.137-1.445.405-.402.268-.69.677-.69 1.16v1.424a.427.427 0 0 0 .854 0V2c0-.12.072-.291.31-.45.239-.16.587-.262.971-.262h11.959c.384 0 .732.103.97.262.239.159.31.33.31.45v10.82c0 .235.192.426.428.426z" fill="#13A98B"/><path fill-rule="evenodd" clip-rule="evenodd" d="M7.912 10.808a.427.427 0 0 1 .604 0l3.968 3.969 3.97-3.97a.427.427 0 1 1 .603.605l-4.27 4.27a.427.427 0 0 1-.605 0l-4.27-4.27a.427.427 0 0 1 0-.604z" fill="#13A98B"/><path fill-rule="evenodd" clip-rule="evenodd" d="M12.485 4.704c.235 0 .427.19.427.427v10.25a.427.427 0 1 1-.855 0V5.13c0-.236.192-.427.428-.427z" fill="#13A98B"/></svg>
